!!!COM: Sergey (Sergeyevich) Prokofiev
!!!OTL: [T579_Pro-w37p15s2-4]
**kern	**kern	**dynam	**kern	**dynam
*grp:A	*grp:A	*grp:A	*grp:B	*grp:B
*part2	*part2	*part2	*part1	*part1
*staff3	*staff2	*	*staff1	*
*I"Piano	*	*	*I"Violin	*
*I'Pno.	*	*	*I'Vln.	*
!!pagebreak:original
*clefF4	*clefG2	*	*clefG2	*
*k[]	*k[]	*	*k[]	*
*C:	*C:	*	*C:	*
*M3/4	*M3/4	*	*M3/4	*
=1	=1	=1	=1	=1
!	!	!	!LO:TX:t=[[half-dot]=90]	!
4AA	4r	p	(8auL	p
.	.	.	8bJ	.
4r	4B 4c 4a	.	8cc)	.
.	.	.	8r	.
4C	4r	.	(8aLv	.
.	.	.	8bJ	.
=2	=2	=2	=2	=2
4r	4A 4c 4f	.	8cc)	.
.	.	.	8r	.
4D	4r	.	(8aaL	.
.	.	.	8ff)	.
4DD	4r	.	(8cc'	.
.	.	.	8dd'J)	.
=3	=3	=3	=3	=3
4AA	4r	.	(8aL	.
.	.	.	8bJ	.
4r	4B 4c 4e	.	8cc)	.
.	.	.	8r	.
4C	4r	.	(8aL	.
.	.	.	8bJ	.
=4	=4	=4	=4	=4
4r	4A 4c 4f	.	8cc)	.
.	.	.	8r	.
4D	4r	.	(8aaL	.
.	.	.	8ff)	.
4DD	4r	.	(8cc'	.
.	.	.	8dd'J)	.
=5	=5	=5	=5	=5
!	!	!	!LO:TX:a:t=spicc.	!
4AA	4r	.	8a'L	.
.	.	.	8b'	.
4r	4B 4c 4e	.	8cc'	.
.	.	.	8dd'	.
4GG	4r	.	8cc'	.
.	.	.	8dd'J	.
=6	=6	=6	=6	=6
4r	4B 4d#X 4f#X	<	8dd#X'L	<
.	.	.	8ff#X'	.
4FF#X	4r	.	8bb'	.
.	.	.	8ddd#X'	.
4r	4f# 4b 4dd#X	[	8ccc#X'	.
.	.	.	8ddd#'J	[
!!linebreak:original
=7	=7	=7	=7	=7
4r	4g#X^ 4b 4ee	mf	8eee'^L	mf
.	.	.	8bb'	.
(>8qF##X/	.	.	.	.
4G#X)	4r	.	8gg#X'	.
.	.	.	8ee'	.
4EE	4r	.	8ee'	.
.	.	.	8ee'J	.
=8	=8	=8	=8	=8
4r	4e	.	8ee'L	.
.	.	.	8eee'	.
4D	4E	>	8eee'	.
.	.	.	8eee'J	.
!	!	!	!LO:TX:a:t=pizz.	!
4DD	4r	]	4ee	.
=9	=9	=9	=9	=9
!	!	!	!LO:TX:a:t=arco	!
4CC	4r	p	(8eeuL	.
.	.	.	8ffJ	.
4r	4c 4e 4g	.	8gg)	.
.	.	.	8r	.
4CC)	4G	.	(8eeL	.
.	.	.	8ffJ	.
=10	=10	=10	=10	=10
4EE	4r	.	8gg)	.
.	.	.	8r	.
4r	4B-X 4d 4g	.	(8dddL	.
.	.	.	8bb-X)	.
4GG	4r	.	(8ff'	.
.	.	.	8gg'J)	.
=11	=11	=11	=11	=11
4C	4r	.	(8eeL	.
.	.	.	8ffJ	.
4r	4c 4e 4g	.	8gg)	.
.	.	.	8r	.
4CC	4G	.	(8eeL	.
.	.	.	8ffJ	.
=12	=12	=12	=12	=12
4EE	4r	.	8gg)	.
.	.	.	8r	.
4r	4B-X 4d 4g	.	(8dddL	.
.	.	.	8bb-X)	.
4GG	4r	.	(8ff'	.
.	.	.	8gg'J)	.
!!linebreak:original
=13	=13	=13	=13	=13
4AA-X^	4A-X^	.	8aa-X'^	.
.	.	.	8r	.
4r^	4c 4e-X	.	8aa-uL	.
.	.	.	8ee-X	.
4G	4r	.	8cc	.
.	.	.	8ee-J	.
=14	=14	=14	=14	=14
4F'	4r	.	8aa-X'	.
.	.	.	8r	.
4r'	4f 4a-X	.	8aa-uL	.
.	.	.	8ff	.
4F	4r	.	8cc	.
.	.	.	8ffJ	.
=15	=15	=15	=15	=15
4E-X'	4r	.	8aa-X'	.
.	.	.	8r	.
4r'	4gg 4aa-X	.	8aa-uL	.
.	.	.	8gg	.
4E-	4r	.	8ee-X	.
.	.	.	8ggJ	.
=16	=16	=16	=16	=16
4D-X'	4r	.	8aa-X'	.
.	.	.	8r	.
4r'	4fff 4aaa-X	.	8aa-L	.
.	.	.	8ff	.
4D-	4r	.	8dd-X	.
.	.	.	8ffJ	.
=17	=17	=17	=17	=17
4C'	4r	.	8aa-X'	.
.	.	.	8r	.
!	!	!	!LO:TX:a:t=II	!
!	!LO:TX:b:i:t=poco cresc.	!	!LO:TX:b:i:t=poco cresc.	!
.	(8qaa-X/	.	.	.
4r'	4a-X 4ee-X)	.	8aa-L	.
.	.	.	8aa-	.
4C	4r	.	8ee-X	.
.	.	.	8ccJ	.
=18	=18	=18	=18	=18
4C-X'	4r	.	8a-X'	.
.	.	.	8r	.
.	(>8qa-X/	.	.	.
4r'	4F 4e-X)	.	8aa-XL	.
.	.	.	8aa-	.
4C-	4r	.	8ff	.
.	.	.	8ee-XJ	.
=	=	=	=	=
*-	*-	*-	*-	*-
!!!system-decoration: s1[({(s2,s3)})]
!!!RDF**kern: > = above
!!!RDF**kern: < = below
